X: 1407
T: Edgar Lacey's Jig
B: australian traditional tunes wiki
M:6/8
L:1/8
R: Jig
Q: 3/8=100
K:D
V:1 
|:ABc|"D"d2D DED|D2D FED|"A"C2C CBA|C3C2A|c2cc2c|BABc2B|"D"A6-|A3ABc|
|"D"d2D DED|D2D FED|"A"C2C CBA|C3C2A|c2cc2B|ABA GFE|"D"D6-|D3B2c||
||"D"dAF dAF|d3-d2B|"A"cBA cBA|E3-E2F|G2FE2D|"A"c2cc2c|BABc2B|"D"A3B2c|
dAF dAF|d3-d2B|"A"cBA cBA|E3-E2F|G2FE2D|"A"c2cc2B|ABA GFE|"D"D3:|
% abcbook-tune_id 6342d53a1178fcde56d4cdec


% abcbook-boost 0
% abcbook-tablature 
% abcbook-transpose 
% abcbook-lastupdated 1665324363535
% abcbook-soundfonts 
% abcbook-repeats 1
% NFF Book 2013

